!!!COM: Scriabin, Alexander
!!!OTL@@FR: Prélude en ré bémol majeur
!!!OTL@@EN: Prelude in Db Major
!!!OPR@@FR: 4 Préludes
!!!OPR@@EN: 4 Preludes
!!!OPS: 48
!!!ONM: 3
!!!ODT: 1905
!!!AGN: Prelude
**kern	**kern	**dynam
*staff2	*staff1	*staff1/2
*Ipiano	*Ipiano	*
*clefF4	*clefG2	*
*k[b-e-a-d-g-]	*k[b-e-a-d-g-]	*
*D-:	*D-:	*
*M3/4	*M3/4	*
=1	=1	=1
*	*^	*
8cL	12r	12e-L	p
.	[6d	12dn	.
8G-J	.	.	.
.	.	[12b-J	.
8AA-L	4d_	12b-L]	.
.	.	12g-	.
8AA-J	.	.	.
.	.	12fJ	.
8AAA-	12d]	12B-L	.
.	6e-	12.e-	.
8r	.	.	.
.	.	24b-Jk	.
=2	=2	=2	=2
8cL	12f	12b--L	.
*	*v	*v	*
.	24cL	<
8G-J	24f	(
.	24b--	(
.	24b--JJ	[
8AA-L	24ffLL	>
.	24b--	)
.	24b--	)
8AA-J	24fJ	]
.	12cJ	.
8AAA-	4r	.
8r	.	.
!!LO:LB:g=original
=3	=3	=3
*	*^	*
8cL	2en	12anL	.
.	.	12g#X	>
8F#XJ	.	.	)
.	.	[12eenJ	)
8CL	.	12eeL]	)
.	.	12cc	)
8DDnJ	.	.	)
.	.	12bnJ	)
8DDDn	4r	[4e	]
8r	.	.	.
=4	=4	=4	=4
8cL	4r	4e]	.
8G-J	.	.	.
8AA-XL	8ryy	[8fn	.
8AA-J	4.f]	4b-X	.
8AAA-	.	.	.
8r	.	8b--	.
=5	=5	=5	=5
8fL	12r	12a-L	.
.	[6g	12gn	.
8c-XJ	.	.	.
.	.	[12ee-J	.
8FL	4g_	12ee-L]	<
.	.	12cc-X	.
8D-J	.	.	.
.	.	12b-XJ	.
8DD-	12g]	12e-L	.
.	6a-	12.a-	.
8r	.	.	.
.	.	24ee-Jk	.
!!LO:LB:g=original
=6	=6	=6	=6
8fL	12b-	12ee--L	mf
*	*v	*v	*
.	24fL	<
8B-J	24b-	(
.	24ee--	(
.	24ee--JJ	[
8FL	24bb-/LL	>
.	24ee--	)
.	24ee--	)
8C-XJ	24b-J	]
.	12fJ	.
8CC-X	4r	.
8r	.	.
=7	=7	=7
8enL	12cc#XL	p
.	12b#X	.
8G#XJ	.	.
.	[12gg#XJ	.
8AA#XL	12gg#L]	.
.	12g#X	.
8c#XJ	.	.
.	12cc#J	.
8F##X\L	12eenL	.
.	12f##X	.
8AAnJ	.	.
.	12dd#XJ	.
=8	=8	=8
8dnL	12r	.
.	12bnL	.
8F#XJ	.	.
.	12a#XJ	.
8GG#XL	12ff#XL	.
.	12f#X	.
8BnJ	.	.
.	12bJ	.
8E#XL	12ddnL	.
.	12e#X	.
8GGnJ	.	.
.	12cc#XJ	.
!!LO:LB:g=original
=9	=9	=9
8AnL	12r	.
.	12anL	.
8DnJ	.	.
.	12g#XJ	.
8FF#XL	12ddnL	.
.	12dn	.
8AJ	.	.
.	12aJ	.
8F#XL	12cc#XL	.
.	12d#X	.
8GG#XJ	.	.
.	12b#XJ	.
=10	=10	=10
8G#XL	12dd#XL	.
.	12e#X	.
8E#XJ	.	.
.	12ddnJ	.
8GG#XL	12g#XL	.
.	12cc#X	.
8CC#XJ	.	.
.	12c#XJ	.
4r	12anL	.
.	12e#	.
.	12g#J	.
=11	=11	=11
*	*^	*
8fL	12r	12a-XL	.
.	[6g	12gn	.
8c-XJ	.	.	.
.	.	[12ee-XJ	.
8D-XL	4g_	12ee-L]	.
.	.	12cc-X	.
8D-J	.	.	.
.	.	12b-J	.
8DD-	12g]	12e-L	.
.	6a-	12.a-	.
8r	.	.	.
.	.	24ee-Jk	.
!!LO:LB:g=original
=12	=12	=12	=12
8fL	12b-	12ee--L	.
*	*v	*v	*
.	24fL	<
8c-XJ	24b-	(
.	24ee--	(
.	24ee--JJ	[
8D-L	24bb-/LL	>
.	24ee--	)
.	24ee--	)
8D-J	24b-J	]
.	12fJ	.
8DD-	4r	.
8r	.	.
=13	=13	=13
*	*^	*
8e-XL	12r	12g-L	.
.	[6f	12f	.
8B--J	.	.	.
.	.	[12dd-J	.
8D-L	4f_	12dd-L]	.
.	.	12b--	.
8D-J	.	.	.
.	.	12a-J	.
8DD-	12f]	12d-L	.
.	6g-	12.g-	.
8r	.	.	.
.	.	24dd-Jk	.
!!LO:LB:g=original
=14	=14	=14	=14
8e-L	12a-	12ccL	.
*	*v	*v	*
.	24e-L	<
8B--J	24a-	(
.	24cc	(
.	24ccJJ	[
8D-L	24aa-/LL	>
.	24cc	)
.	24cc	)
8D-J	24a-J	]
.	12e-J	.
8DD-	4r	.
8r	.	.
=15	=15	=15
*	*^	*
8cL	12r	12e-L	.
.	[6dn	12dn	.
8GJ	.	.	.
.	.	[12b-XJ	.
8D-XL	4d_	12b-L]	.
.	.	12g	.
8D-J	.	.	.
.	.	12fJ	.
8DD-	12dn]	12B-L	.
.	6e-	12.e-	.
8r	.	.	.
.	.	24b-J	.
!!LO:LB:g=original
=16	=16	=16	=16
8cL	12f	12b--L	.
*	*v	*v	*
.	24cL	<
8G-J	24f	(
.	24b--	(
.	24b--JJ	[
8D-L	24ffLL	>
.	24b--	)
.	24b--	)
8D-J	24fJ	]
.	12cJ	.
8DD-	4r	.
8r	.	.
=17	=17	=17
8d-L	4r	.
8FJ	.	.
*	*^	*
8D-L	2f	4b--	.
8D-J	.	.	.
8DD-	.	4a-	.
8r	.	.	.
*	*v	*v	*
!!LO:LB:g=original
=18	=18	=18
8cL	12r	.
.	24cLL	<
8G-J	24f	(
.	24b--	(
.	24b--JJ	[
8D-L	24ffLL	>
.	24b--	)
.	24b--	)
8D-J	24fJ	]
.	12cJ	.
8DD-	4r	.
8r	.	.
=19	=19	=19
8d-L	4r	.
8FJ	.	.
*	*^	*
8D-L	2f	4b--	.
8D-J	.	.	.
8DD-	.	4a-	.
8r	.	.	.
*	*v	*v	*
=20	=20	=20
8cL	12r	.
.	24cLL	<
8G-J	24f	(
.	24b--	(
.	24b--JJ	[
8D-L	24ffLL	>
.	24b--	)
.	24b--	)
8D-J	24fJ	]
.	12cJ	.
8DD-	4r	.
8r	.	.
!!LO:LB:g=original
=21	=21	=21
8cL	12r	.
.	24cLL	<
8G-J	24f	(
.	24b--	(
.	24ccJJ	[
8D-L	24bb--/LL	>
.	24cc	)
.	24b--	)
8D-J	24fJ	]
.	12cJ	.
8DD-	4r	.
8r	.	.
=22	=22	=22
8cL	12r	.
.	24cLL	<
8G-J	24f	(
.	36b--	[
.	36cc	.
.	36ffJJ	.
8D-L	24ccc/LL	.
.	24ff	>
.	24cc	)
8D-J	24b--	)
.	24f	]
.	24cJJ	.
8DD-	4r	.
8r	.	.
=23	=23	=23
*^	*^	*
*	*^	*	*^	*
*	*	*^	*	*	*^	*
*	*	*	*	*	*	*	*^	*
*	*	*	*	*	*	*	*	*^	*
16qd-LL	8qryy	16qryy	[4qd-	.	16.qryy	8qryy	8qryy	8.qryy	16qr	<
16qF	.	[8.qF	.	[8.qd-	.	.	.	.	32qd-LL	(
.	.	.	.	.	[8qf	.	.	.	32qf	(
16qD-	[8qD-	.	.	.	.	[8qa-	32qryy	.	32qa-	(
.	.	.	.	.	.	.	[16.qdd-	.	32qdd-	(
[16qAA-JJ	.	.	.	.	.	.	.	[16qff	32qff	(
.	.	.	.	.	32qf_	.	.	.	[32qaa-JJ	(
*	*	*	*	*	*	*	*	*v	*v	*
*	*	*	*	*	*	*	*v	*v	*
*	*	*	*	*	*	*v	*v	*
*	*	*	*	*	*v	*v	*
*	*	*	*	*v	*v	*
*	*	*v	*v	*	*
*	*v	*v	*	*
*v	*v	*	*
4DD-] 4AA-] 4D-] 4F] 4d]	4d-] 4f] 4a-] 4dd-] 4ff] 4aa-] 4ddd-	[
4r	4r	.
4r	4r	.
==	==	==
*-	*-	*-
!!!system-decoration: {(*)}
!!!filter: flipper -a
!!!RDF**kern: N = linked
!!!ENC: Bryan Jacob Bell
!!!END: November 2021 to April 2022
!!!PED: Günter Philipp
!!!PTL: Ausgewählte Klavierwerke (Edition Peters)
!!!URL-pdf: https://github.com/bel28kent/Mysterium/blob/main/reference_editions/op48.pdf
